!! 00000] TT[WS
!!!OTL: Zouzhe zhanzhe pansuan ni
!!!ARE: Asia, China,ÿShanxi Hequ
!! Ethnic Group: Han
!! WI, 17 (1)
!!!SCT: J0018
!!!YEM: Copyright 1995, estate of Helmut Schaffrath.
**kern
*ICvox
*Ivox
*M2/4
*k[]
*C:
{8g
4a
16g
16e
=1
8g
8a
8g
16e
16d
=2
4A
8g
16e
16c
=3
2A}
=4
{8g
4a
16g
16e
=5
8g
8a
8g
16e
16d
=6
4A
8g
16e
16c
=7
2d}
==
!!!AGN: Shange, Shanqu. Qingge
!!!ONB: ESAC (Essen Associative Code) Database: CHINA
!!!AMT: simple duple
!!!AIN: vox
!!!EED: Helmut Schaffrath
!!!EEV: 1.0
*-
